packages/icons/svgs/duotone/Source=logout.svg

<svg width="24" height="24" viewBox="0 0 24 24" fill="none" xmlns="http://www.w3.org/2000/svg">
<path fill-rule="evenodd" clip-rule="evenodd" d="M8 12C8 11.4477 8.44772 11 9 11H21C21.5523 11 22 11.4477 22 12C22 12.5523 21.5523 13 21 13H9C8.44772 13 8 12.5523 8 12Z" fill="black" style="fill:black;fill-opacity:1;"/>
<path fill-rule="evenodd" clip-rule="evenodd" d="M16.2929 7.29289C16.6834 6.90237 17.3166 6.90237 17.7071 7.29289L21.7071 11.2929C22.0976 11.6834 22.0976 12.3166 21.7071 12.7071L17.7071 16.7071C17.3166 17.0976 16.6834 17.0976 16.2929 16.7071C15.9024 16.3166 15.9024 15.6834 16.2929 15.2929L19.5858 12L16.2929 8.70711C15.9024 8.31658 15.9024 7.68342 16.2929 7.29289Z" fill="black" style="fill:black;fill-opacity:1;"/>
<path opacity="0.5" fill-rule="evenodd" clip-rule="evenodd" d="M4 1C4 0.447715 4.44772 0 5 0H19C19.5523 0 20 0.447715 20 1V4C20 4.55228 19.5523 5 19 5C18.4477 5 18 4.55228 18 4V2H6V22H18V20C18 19.4477 18.4477 19 19 19C19.5523 19 20 19.4477 20 20V23C20 23.5523 19.5523 24 19 24H5C4.44772 24 4 23.5523 4 23V1Z" fill="black" style="fill:black;fill-opacity:1;"/>
</svg>

<svg xmlns="http://www.w3.org/2000/svg" width="24" height="24" viewBox="0 0 24 24"><path fill-rule="evenodd" d="M8 12a1 1 0 0 1 1-1h12a1 1 0 1 1 0 2H9a1 1 0 0 1-1-1" clip-rule="evenodd"/><path fill-rule="evenodd" d="M16.293 7.293a1 1 0 0 1 1.414 0l4 4a1 1 0 0 1 0 1.414l-4 4a1 1 0 0 1-1.414-1.414L19.586 12l-3.293-3.293a1 1 0 0 1 0-1.414" clip-rule="evenodd"/><path fill-rule="evenodd" d="M4 1a1 1 0 0 1 1-1h14a1 1 0 0 1 1 1v3a1 1 0 1 1-2 0V2H6v20h12v-2a1 1 0 1 1 2 0v3a1 1 0 0 1-1 1H5a1 1 0 0 1-1-1z" clip-rule="evenodd" opacity=".5"/></svg>
